public/swb_ecl2.svg

<svg  xmlns="http://www.w3.org/2000/svg"  width="24"  height="24"  viewBox="0 0 24 24"  fill="currentColor"  class="icon icon-tabler icons-tabler-filled icon-tabler-bulb"><path stroke="none" d="M0 0h24v24H0z" fill="none"/><path d="M4 11a1 1 0 0 1 .117 1.993l-.117 .007h-1a1 1 0 0 1 -.117 -1.993l.117 -.007h1z" /><path d="M12 2a1 1 0 0 1 .993 .883l.007 .117v1a1 1 0 0 1 -1.993 .117l-.007 -.117v-1a1 1 0 0 1 1 -1z" /><path d="M21 11a1 1 0 0 1 .117 1.993l-.117 .007h-1a1 1 0 0 1 -.117 -1.993l.117 -.007h1z" /><path d="M4.893 4.893a1 1 0 0 1 1.32 -.083l.094 .083l.7 .7a1 1 0 0 1 -1.32 1.497l-.094 -.083l-.7 -.7a1 1 0 0 1 0 -1.414z" /><path d="M17.693 4.893a1 1 0 0 1 1.497 1.32l-.083 .094l-.7 .7a1 1 0 0 1 -1.497 -1.32l.083 -.094l.7 -.7z" /><path d="M14 18a1 1 0 0 1 1 1a3 3 0 0 1 -6 0a1 1 0 0 1 .883 -.993l.117 -.007h4z" /><path d="M12 6a6 6 0 0 1 3.6 10.8a1 1 0 0 1 -.471 .192l-.129 .008h-6a1 1 0 0 1 -.6 -.2a6 6 0 0 1 3.6 -10.8z" /></svg>

<?xml version="1.0" encoding="UTF-8" standalone="no"?>
<svg
   width="1000"
   height="1000"
   viewBox="1 1 22.222222 22.222222"
   fill="currentColor"
   class="icon icon-tabler icons-tabler-filled icon-tabler-bulb"
   version="1.1"
   id="svg8"
   sodipodi:docname="swb_ecl2.svg"
   inkscape:version="1.4 (86a8ad7, 2024-10-11)"
   xmlns:inkscape="http://www.inkscape.org/namespaces/inkscape"
   xmlns:sodipodi="http://sodipodi.sourceforge.net/DTD/sodipodi-0.dtd"
   xmlns="http://www.w3.org/2000/svg"
   xmlns:svg="http://www.w3.org/2000/svg">
  <defs
     id="defs8" />
  <sodipodi:namedview
     id="namedview8"
     pagecolor="#ffffff"
     bordercolor="#000000"
     borderopacity="0.25"
     inkscape:showpageshadow="2"
     inkscape:pageopacity="0.0"
     inkscape:pagecheckerboard="0"
     inkscape:deskcolor="#d1d1d1"
     inkscape:zoom="33.625"
     inkscape:cx="12"
     inkscape:cy="12"
     inkscape:window-width="1920"
     inkscape:window-height="1009"
     inkscape:window-x="1912"
     inkscape:window-y="-8"
     inkscape:window-maximized="1"
     inkscape:current-layer="svg8" />
  <path
     stroke="none"
     d="M 0,0 H 24 V 24 H 0 Z"
     fill="none"
     id="path1" />
  <path
     d="m 4,11 a 1,1 0 0 1 0.117,1.993 L 4,13 H 3 A 1,1 0 0 1 2.883,11.007 L 3,11 Z"
     id="path2" />
  <path
     d="m 12,2 a 1,1 0 0 1 0.993,0.883 L 13,3 V 4 A 1,1 0 0 1 11.007,4.117 L 11,4 V 3 a 1,1 0 0 1 1,-1 z"
     id="path3" />
  <path
     d="m 21,11 a 1,1 0 0 1 0.117,1.993 L 21,13 H 20 A 1,1 0 0 1 19.883,11.007 L 20,11 Z"
     id="path4" />
  <path
     d="M 4.893,4.893 A 1,1 0 0 1 6.213,4.81 l 0.094,0.083 0.7,0.7 A 1,1 0 0 1 5.687,7.09 l -0.094,-0.083 -0.7,-0.7 a 1,1 0 0 1 0,-1.414 z"
     id="path5" />
  <path
     d="m 17.693,4.893 a 1,1 0 0 1 1.497,1.32 l -0.083,0.094 -0.7,0.7 A 1,1 0 0 1 16.91,5.687 l 0.083,-0.094 z"
     id="path6" />
  <path
     d="m 14,18 a 1,1 0 0 1 1,1 3,3 0 0 1 -6,0 1,1 0 0 1 0.883,-0.993 L 10,18 Z"
     id="path7" />
  <path
     d="m 12,6 a 6,6 0 0 1 3.6,10.8 1,1 0 0 1 -0.471,0.192 L 15,17 H 9 A 1,1 0 0 1 8.4,16.8 6,6 0 0 1 12,6 Z"
     id="path8" />
</svg>
